src/assets/logo.svg

<svg class="logo" width="530" height="120" viewBox="0 0 530 120" fill="none" xmlns="http://www.w3.org/2000/svg">
    <path d="M143.04 4.21997V7.41997C139.627 7.52663 137.067 7.9533 135.36 8.69997C133.653 9.33997 132.48 10.62 131.84 12.54C131.307 14.3533 131.04 17.2333 131.04 21.18V100.54C131.04 104.38 131.307 107.26 131.84 109.18C132.48 111.1 133.653 112.38 135.36 113.02C137.067 113.66 139.627 114.087 143.04 114.3V117.5C140.053 117.287 136.267 117.18 131.68 117.18C127.2 117.073 122.613 117.02 117.92 117.02C112.8 117.02 108 117.073 103.52 117.18C99.04 117.18 95.4133 117.287 92.64 117.5V114.3C96.2666 114.087 98.9866 113.66 100.8 113.02C102.72 112.38 104 111.1 104.64 109.18C105.28 107.26 105.6 104.38 105.6 100.54V13.98H106.72L67.04 117.66H64.48L21.28 14.62V91.26C21.28 97.1266 21.6 101.66 22.24 104.86C22.88 107.953 24.2666 110.193 26.4 111.58C28.64 112.86 32.1066 113.767 36.8 114.3V117.5C34.7733 117.287 32.1066 117.18 28.8 117.18C25.4933 117.073 22.4 117.02 19.52 117.02C17.0666 117.02 14.56 117.073 12 117.18C9.43998 117.18 7.30664 117.287 5.59998 117.5V114.3C9.01331 113.767 11.5733 112.86 13.28 111.58C14.9866 110.3 16.1066 108.22 16.64 105.34C17.28 102.353 17.6 98.3 17.6 93.18V21.18C17.6 17.2333 17.28 14.3533 16.64 12.54C16.1066 10.62 14.9333 9.33997 13.12 8.69997C11.4133 7.9533 8.90664 7.52663 5.59998 7.41997V4.21997C7.30664 4.32664 9.43998 4.4333 12 4.53997C14.56 4.64663 17.0666 4.69996 19.52 4.69996C24.1066 4.69996 28.5866 4.64663 32.96 4.53997C37.44 4.4333 41.3866 4.32664 44.8 4.21997L78.4 85.34L74.4 89.02L106.56 4.69996C108.373 4.69996 110.24 4.69996 112.16 4.69996C114.08 4.69996 116 4.69996 117.92 4.69996C122.613 4.69996 127.2 4.64663 131.68 4.53997C136.267 4.4333 140.053 4.32664 143.04 4.21997Z" fill="white"/>
    <path d="M270.88 4.21997V7.41997C267.467 7.84664 264.907 8.7533 263.2 10.14C261.493 11.42 260.32 13.5 259.68 16.38C259.147 19.26 258.88 23.3133 258.88 28.54V117.82C257.6 117.713 256.267 117.66 254.88 117.66C253.6 117.66 252.213 117.713 250.72 117.82L181.28 29.82V91.26C181.28 97.1266 181.6 101.66 182.24 104.86C182.88 107.953 184.267 110.193 186.4 111.58C188.64 112.86 192.107 113.767 196.8 114.3V117.5C194.773 117.287 192.107 117.18 188.8 117.18C185.493 117.073 182.4 117.02 179.52 117.02C177.067 117.02 174.56 117.073 172 117.18C169.44 117.18 167.307 117.287 165.6 117.5V114.3C169.013 113.767 171.573 112.86 173.28 111.58C174.987 110.3 176.107 108.22 176.64 105.34C177.28 102.353 177.6 98.3 177.6 93.18V21.18C177.6 17.2333 177.28 14.3533 176.64 12.54C176.107 10.62 174.933 9.33997 173.12 8.69997C171.413 7.9533 168.907 7.52663 165.6 7.41997V4.21997C167.307 4.32664 169.44 4.4333 172 4.53997C174.56 4.64663 177.067 4.69996 179.52 4.69996C182.08 4.69996 184.533 4.64663 186.88 4.53997C189.227 4.4333 191.36 4.32664 193.28 4.21997L255.2 80.54V30.46C255.2 24.5933 254.88 20.1133 254.24 17.02C253.6 13.82 252.16 11.5266 249.92 10.14C247.787 8.7533 244.373 7.84664 239.68 7.41997V4.21997C241.707 4.32664 244.373 4.4333 247.68 4.53997C250.987 4.64663 254.08 4.69996 256.96 4.69996C259.52 4.69996 262.027 4.64663 264.48 4.53997C267.04 4.4333 269.173 4.32664 270.88 4.21997Z" fill="white"/>
    <path d="M392.72 4.21997C392.293 9.65997 391.973 14.8866 391.76 19.9C391.653 24.9133 391.6 28.7533 391.6 31.42C391.6 33.7666 391.653 36.0066 391.76 38.14C391.867 40.2733 391.973 42.0866 392.08 43.58H388.4C386.693 34.62 384.507 27.5266 381.84 22.3C379.28 17.0733 376.187 13.3933 372.56 11.26C368.933 9.01996 364.667 7.89996 359.76 7.89996H356.08V99.26C356.08 103.527 356.507 106.727 357.36 108.86C358.32 110.993 360.027 112.433 362.48 113.18C364.933 113.82 368.507 114.193 373.2 114.3V117.5C369.893 117.393 365.467 117.287 359.92 117.18C354.48 117.073 348.773 117.02 342.8 117.02C336.933 117.02 331.387 117.073 326.16 117.18C320.933 117.287 316.72 117.393 313.52 117.5V114.3C318.32 114.193 321.947 113.82 324.4 113.18C326.853 112.433 328.507 110.993 329.36 108.86C330.213 106.727 330.64 103.527 330.64 99.26V7.89996H327.12C322.213 7.89996 317.947 9.01996 314.32 11.26C310.693 13.3933 307.6 17.0733 305.04 22.3C302.48 27.42 300.24 34.5133 298.32 43.58H294.64C294.853 42.0866 294.96 40.2733 294.96 38.14C295.067 36.0066 295.12 33.7666 295.12 31.42C295.12 28.7533 295.013 24.9133 294.8 19.9C294.693 14.8866 294.427 9.65997 294 4.21997C298.907 4.32664 304.24 4.4333 310 4.53997C315.867 4.64663 321.733 4.69996 327.6 4.69996C333.467 4.69996 338.747 4.69996 343.44 4.69996C348.24 4.69996 353.52 4.69996 359.28 4.69996C365.147 4.69996 371.013 4.64663 376.88 4.53997C382.747 4.4333 388.027 4.32664 392.72 4.21997Z" fill="white"/>
    <path d="M520.88 4.21997V7.41997C517.467 7.84664 514.907 8.7533 513.2 10.14C511.493 11.42 510.32 13.5 509.68 16.38C509.147 19.26 508.88 23.3133 508.88 28.54V117.82C507.6 117.713 506.267 117.66 504.88 117.66C503.6 117.66 502.213 117.713 500.72 117.82L431.28 29.82V91.26C431.28 97.1266 431.6 101.66 432.24 104.86C432.88 107.953 434.267 110.193 436.4 111.58C438.64 112.86 442.107 113.767 446.8 114.3V117.5C444.773 117.287 442.107 117.18 438.8 117.18C435.493 117.073 432.4 117.02 429.52 117.02C427.067 117.02 424.56 117.073 422 117.18C419.44 117.18 417.307 117.287 415.6 117.5V114.3C419.013 113.767 421.573 112.86 423.28 111.58C424.987 110.3 426.107 108.22 426.64 105.34C427.28 102.353 427.6 98.3 427.6 93.18V21.18C427.6 17.2333 427.28 14.3533 426.64 12.54C426.107 10.62 424.933 9.33997 423.12 8.69997C421.413 7.9533 418.907 7.52663 415.6 7.41997V4.21997C417.307 4.32664 419.44 4.4333 422 4.53997C424.56 4.64663 427.067 4.69996 429.52 4.69996C432.08 4.69996 434.533 4.64663 436.88 4.53997C439.227 4.4333 441.36 4.32664 443.28 4.21997L505.2 80.54V30.46C505.2 24.5933 504.88 20.1133 504.24 17.02C503.6 13.82 502.16 11.5266 499.92 10.14C497.787 8.7533 494.373 7.84664 489.68 7.41997V4.21997C491.707 4.32664 494.373 4.4333 497.68 4.53997C500.987 4.64663 504.08 4.69996 506.96 4.69996C509.52 4.69996 512.027 4.64663 514.48 4.53997C517.04 4.4333 519.173 4.32664 520.88 4.21997Z" fill="white"/>
</svg>

<svg class="nav-logo__image" viewBox="0 0 530 120" fill="none" xmlns="http://www.w3.org/2000/svg">
  <path d="M143.04 4.22v3.2c-3.413.107-5.973.533-7.68 1.28-1.707.64-2.88 1.92-3.52 3.84-.533 1.813-.8 4.693-.8 8.64v79.36c0 3.84.267 6.72.8 8.64.64 1.92 1.813 3.2 3.52 3.84 1.707.64 4.267 1.067 7.68 1.28v3.2c-2.987-.213-6.773-.32-11.36-.32-4.48-.107-9.067-.16-13.76-.16-5.12 0-9.92.053-14.4.16-4.48 0-8.107.107-10.88.32v-3.2c3.627-.213 6.347-.64 8.16-1.28 1.92-.64 3.2-1.92 3.84-3.84.64-1.92.96-4.8.96-8.64V13.98h1.12L67.04 117.66h-2.56L21.28 14.62v76.64c0 5.867.32 10.4.96 13.6.64 3.093 2.027 5.333 4.16 6.72 2.24 1.28 5.707 2.187 10.4 2.72v3.2c-2.027-.213-4.693-.32-8-.32-3.307-.107-6.4-.16-9.28-.16-2.453 0-4.96.053-7.52.16-2.56 0-4.693.107-6.4.32v-3.2c3.413-.533 5.973-1.44 7.68-2.72 1.707-1.28 2.827-3.36 3.36-6.24.64-2.987.96-7.04.96-12.16v-72c0-3.947-.32-6.827-.96-8.64-.533-1.92-1.707-3.2-3.52-3.84-1.707-.747-4.213-1.173-7.52-1.28v-3.2c1.707.107 3.84.213 6.4.32 2.56.107 5.067.16 7.52.16 4.587 0 9.067-.053 13.44-.16 4.48-.107 8.427-.213 11.84-.32l33.6 81.12-4 3.68L106.56 4.7h11.36c4.693 0 9.28-.053 13.76-.16 4.587-.107 8.373-.213 11.36-.32Z" fill="currentColor"/>
  <path d="M270.88 4.22v3.2c-3.413.427-5.973 1.333-7.68 2.72-1.707 1.28-2.88 3.36-3.52 6.24-.533 2.88-.8 6.933-.8 12.16v89.28a48.045 48.045 0 0 0-4-.16c-1.28 0-2.667.053-4.16.16l-69.44-88v61.44c0 5.867.32 10.4.96 13.6.64 3.093 2.027 5.333 4.16 6.72 2.24 1.28 5.707 2.187 10.4 2.72v3.2c-2.027-.213-4.693-.32-8-.32-3.307-.107-6.4-.16-9.28-.16-2.453 0-4.96.053-7.52.16-2.56 0-4.693.107-6.4.32v-3.2c3.413-.533 5.973-1.44 7.68-2.72 1.707-1.28 2.827-3.36 3.36-6.24.64-2.987.96-7.04.96-12.16v-72c0-3.947-.32-6.827-.96-8.64-.533-1.92-1.707-3.2-3.52-3.84-1.707-.747-4.213-1.173-7.52-1.28v-3.2c1.707.107 3.84.213 6.4.32 2.56.107 5.067.16 7.52.16 2.56 0 5.013-.053 7.36-.16 2.347-.107 4.48-.213 6.4-.32l61.92 76.32V30.46c0-5.867-.32-10.347-.96-13.44-.64-3.2-2.08-5.493-4.32-6.88-2.133-1.387-5.547-2.293-10.24-2.72v-3.2c2.027.107 4.693.213 8 .32 3.307.107 6.4.16 9.28.16 2.56 0 5.067-.053 7.52-.16a318.14 318.14 0 0 0 6.4-.32Z" fill="currentColor"/>
  <path d="M392.72 4.22a438.5 438.5 0 0 0-.96 15.68c-.107 5.013-.16 8.853-.16 11.52 0 2.347.053 4.587.16 6.72a261.4 261.4 0 0 0 .32 5.44h-3.68c-1.707-8.96-3.893-16.053-6.56-21.28-2.56-5.227-5.653-8.907-9.28-11.04-3.627-2.24-7.893-3.36-12.8-3.36h-3.68v91.36c0 4.267.427 7.467 1.28 9.6.96 2.133 2.667 3.573 5.12 4.32 2.453.64 6.027 1.013 10.72 1.12v3.2c-3.307-.107-7.733-.213-13.28-.32-5.44-.107-11.147-.16-17.12-.16-5.867 0-11.413.053-16.64.16-5.227.107-9.44.213-12.64.32v-3.2c4.8-.107 8.427-.48 10.88-1.12 2.453-.747 4.107-2.187 4.96-4.32.853-2.133 1.28-5.333 1.28-9.6V7.9h-3.52c-4.907 0-9.173 1.12-12.8 3.36-3.627 2.133-6.72 5.813-9.28 11.04-2.56 5.12-4.8 12.213-6.72 21.28h-3.68c.213-1.493.32-3.307.32-5.44.107-2.133.16-4.373.16-6.72 0-2.667-.107-6.507-.32-11.52a275.805 275.805 0 0 0-.8-15.68c4.907.107 10.24.213 16 .32a968.2 968.2 0 0 0 17.6.16h31.68a968.2 968.2 0 0 0 17.6-.16c5.867-.107 11.147-.213 15.84-.32Z" fill="currentColor"/>
  <path d="M520.88 4.22v3.2c-3.413.427-5.973 1.333-7.68 2.72-1.707 1.28-2.88 3.36-3.52 6.24-.533 2.88-.8 6.933-.8 12.16v89.28a48.045 48.045 0 0 0-4-.16c-1.28 0-2.667.053-4.16.16l-69.44-88v61.44c0 5.867.32 10.4.96 13.6.64 3.093 2.027 5.333 4.16 6.72 2.24 1.28 5.707 2.187 10.4 2.72v3.2c-2.027-.213-4.693-.32-8-.32-3.307-.107-6.4-.16-9.28-.16-2.453 0-4.96.053-7.52.16-2.56 0-4.693.107-6.4.32v-3.2c3.413-.533 5.973-1.44 7.68-2.72 1.707-1.28 2.827-3.36 3.36-6.24.64-2.987.96-7.04.96-12.16v-72c0-3.947-.32-6.827-.96-8.64-.533-1.92-1.707-3.2-3.52-3.84-1.707-.747-4.213-1.173-7.52-1.28v-3.2c1.707.107 3.84.213 6.4.32 2.56.107 5.067.16 7.52.16 2.56 0 5.013-.053 7.36-.16 2.347-.107 4.48-.213 6.4-.32l61.92 76.32V30.46c0-5.867-.32-10.347-.96-13.44-.64-3.2-2.08-5.493-4.32-6.88-2.133-1.387-5.547-2.293-10.24-2.72v-3.2c2.027.107 4.693.213 8 .32 3.307.107 6.4.16 9.28.16 2.56 0 5.067-.053 7.52-.16a318.14 318.14 0 0 0 6.4-.32Z" fill="currentColor"/>
</svg>
